images/logo-footer.svg

<svg width="130" height="49" viewBox="0 0 130 49" fill="none" xmlns="http://www.w3.org/2000/svg">
<path d="M42.6833 21.0265V25.3069H48.9808V42.3992H53.3856V25.3069H59.683V21.0265H42.6833ZM78.8179 22.2678C77.5374 21.3782 75.6243 20.9067 73.2626 20.9067C72.1977 20.9067 66.9544 21.0211 66.7334 21.0265L65.9014 21.0428V42.3992H70.3344V34.6529H73.1662C74.8497 34.691 76.5169 34.3175 78.0249 33.5651C80.0941 32.2693 81.3302 29.975 81.2814 27.5261C81.2814 25.136 80.4538 23.3665 78.8179 22.2668V22.2678ZM70.3235 25.3058C71.1902 25.3058 72.4978 25.2438 73.0362 25.2438C76.1161 25.2438 76.7455 26.1944 76.7455 27.6176C76.7553 28.4495 76.3772 29.24 75.7261 29.7518C74.8172 30.1928 73.8108 30.3888 72.8033 30.3213H70.3344L70.3235 25.3069V25.3058ZM90.6924 25.7566C88.5127 25.7392 86.424 26.6386 84.9333 28.2382C83.3864 29.8313 82.5381 31.9818 82.5782 34.2086C82.5479 36.4463 83.3961 38.6055 84.9398 40.2193C86.4316 41.8123 88.5149 42.7096 90.6924 42.6954C92.209 42.7139 93.6954 42.2784 94.9629 41.4432V42.1314H99.3395V26.1203L95.03 27.0252C93.743 26.1759 92.2318 25.7338 90.6924 25.7566ZM93.6488 31.0889C94.4374 31.9317 94.8664 33.0522 94.8437 34.2086C94.8686 35.3737 94.4407 36.504 93.6488 37.3555C92.9338 38.1417 91.9219 38.5892 90.8624 38.5892C89.8029 38.5892 88.7922 38.1428 88.0761 37.3566C87.2853 36.5018 86.8574 35.3704 86.8877 34.2032C86.8617 33.0468 87.2885 31.9274 88.0761 31.0835C88.7824 30.2832 89.7954 29.8258 90.8603 29.8258C91.9241 29.8258 92.937 30.2832 93.6434 31.0835L93.6488 31.0889ZM110.354 32.4958L108.655 31.8403C107.127 31.2719 107.127 31.0998 107.127 30.8679C107.127 30.5031 107.127 29.8313 109.074 29.8313C110.473 29.8345 111.851 30.1721 113.095 30.8167L114.307 31.3851V26.7922L113.74 26.582C112.221 26.0049 110.613 25.7055 108.989 25.7C105.07 25.7 102.726 27.5664 102.726 30.6915C102.726 33.8166 104.99 34.9371 106.734 35.5741L108.559 36.2296C110.325 36.8611 110.496 37.0375 110.496 37.3675C110.496 37.8346 110.496 38.6142 108.281 38.6142C106.622 38.6099 104.997 38.1351 103.593 37.2477L102.312 36.5072V41.2265L102.772 41.466C104.476 42.3099 106.353 42.739 108.253 42.7183C112.415 42.7183 114.901 40.7594 114.901 37.4872C114.93 34.4874 112.856 33.429 110.354 32.4958ZM125.094 32.4958L123.395 31.8403C121.866 31.2719 121.866 31.0998 121.866 30.8679C121.866 30.5031 121.866 29.8313 123.814 29.8313C125.213 29.8345 126.591 30.1721 127.834 30.8167L129.047 31.3851V26.7922L128.48 26.582C126.962 26.0049 125.353 25.7055 123.73 25.7C119.81 25.7 117.466 27.5664 117.466 30.6915C117.466 33.8166 119.731 34.9371 121.475 35.5741L123.299 36.2296C125.065 36.8611 125.236 37.0375 125.236 37.3675C125.236 37.8346 125.236 38.6142 123.021 38.6142C121.363 38.6099 119.738 38.1351 118.333 37.2477L117.053 36.5072V41.2265L117.511 41.466C119.215 42.3099 121.094 42.739 122.993 42.7183C127.155 42.7183 129.641 40.7594 129.641 37.4872C129.67 34.4874 127.625 33.429 125.094 32.4958Z" fill="white"/>
<path d="M59.3938 42.4439C60.6664 42.4439 61.698 41.407 61.698 40.1278C61.698 38.8487 60.6664 37.8118 59.3938 37.8118C58.1212 37.8118 57.0895 38.8487 57.0895 40.1278C57.0895 41.407 58.1212 42.4439 59.3938 42.4439Z" fill="url(#paint0_linear)"/>
<path d="M15.2609 47.6313C19.7697 47.6313 23.9092 44.8916 24.4909 41.5248L25.4269 33.1686C23.6676 34.0594 23.0999 36.0292 19.3895 34.4982C19.3895 34.4982 15.7213 32.487 14.6987 32.1745C9.62325 30.6217 4.81866 34.7856 4.77316 34.8488L6.10675 41.4279C6.69283 44.8296 10.803 47.6313 15.2609 47.6313Z" fill="url(#paint1_linear)"/>
<path d="M27.6488 19.2668C27.2533 13.8202 23.4595 9.22728 18.2053 7.83568L18.4935 5.15375L20.7826 3.97993L20.8747 3.9331L22.4997 3.11099C22.8388 2.94004 23.0955 2.64168 23.2147 2.28017C23.3328 1.91975 23.3035 1.52666 23.1334 1.18693L22.9341 0.789481C22.9124 0.745925 22.8875 0.70237 22.8615 0.660992C22.4683 0.0425032 21.672 -0.177452 21.0198 0.15357L20.528 0.404014L20.4933 0.420348L15.8567 2.73424C15.5858 2.85837 15.4017 3.11535 15.3692 3.41261L14.9402 7.40666C8.24192 7.42844 2.78517 12.6551 2.30851 19.2668C0.969507 19.5282 0.00209041 20.7042 0.00100708 22.0762V23.4209C0.00317375 24.9497 1.20134 26.2063 2.72017 26.2727L4.59976 40.8856C4.97676 45.459 8.56801 48.9097 12.9501 48.9097H17.2531C21.6352 48.9097 25.2253 45.4612 25.598 40.9368L27.4841 26.2521C28.8968 26.0659 29.9541 24.8583 29.9563 23.4264V22.0805C29.9573 20.7085 28.9899 19.5271 27.6488 19.2668ZM14.977 9.55395C20.4803 9.55395 25.0011 13.8061 25.5016 19.2124H23.414C22.9254 14.957 19.3418 11.649 14.9803 11.649C10.6198 11.649 7.02859 14.957 6.54109 19.2124H4.45459C4.95292 13.8061 9.47151 9.55395 14.977 9.55395ZM21.3784 19.2124H19.0688C18.6246 17.3014 16.9292 15.9501 14.9781 15.9501C13.0259 15.9501 11.3316 17.3014 10.8874 19.2124H8.57776C9.05767 16.0317 11.7779 13.6808 14.9781 13.6808C18.1783 13.6808 20.8985 16.0317 21.3784 19.2124ZM5.93117 34.0866L4.92909 26.2858H12.8699L12.3575 31.1967C9.33826 31.0987 7.19759 32.7103 5.93334 34.0855L5.93117 34.0866ZM23.4194 40.7016C23.1378 44.124 20.4858 46.7047 17.252 46.7047H12.949C9.71417 46.7047 7.06217 44.124 6.77401 40.6504L6.25184 36.5726C6.72959 35.7755 8.67201 32.9651 12.1668 32.9988L11.5212 39.1772C11.4367 39.9851 12.0022 40.7136 12.7854 40.8007L13.2253 40.8497C13.274 40.8551 13.3228 40.8584 13.3715 40.8584C14.1125 40.8519 14.7278 40.2835 14.7961 39.5419L15.3984 33.773C15.5122 33.8242 15.6238 33.871 15.7386 33.9287C19.7686 35.9105 22.5658 35.3138 24.2222 34.4449L23.4205 40.7016H23.4194ZM24.5331 32.0308C23.9914 32.597 21.4792 34.7585 16.5229 32.3204C16.2066 32.1647 15.8989 32.033 15.5934 31.9121L16.1828 26.2847H25.2719L24.5331 32.0308ZM27.7907 23.4188C27.7907 23.6017 27.7192 23.7781 27.5913 23.9066C27.4635 24.0373 27.2891 24.1102 27.1071 24.1102H2.85017C2.47101 24.1102 2.16551 23.8021 2.16551 23.4231V22.0773C2.16551 21.6972 2.47209 21.3902 2.85017 21.3891H27.1071C27.4863 21.3891 27.7918 21.6972 27.7928 22.0773L27.7907 23.4188Z" fill="white"/>
<path d="M17.4839 43.0167C16.8253 43.1604 16.406 43.8127 16.549 44.4758C16.6909 45.1379 17.3398 45.5582 17.9996 45.4155C18.6583 45.274 19.0775 44.6206 18.9356 43.9586C18.8673 43.6406 18.6756 43.3619 18.4048 43.1855C18.1318 43.008 17.8003 42.9481 17.4839 43.0167ZM18.3625 40.2825C18.135 40.3326 17.9617 40.5133 17.9194 40.7431C17.8783 40.9718 17.979 41.2037 18.174 41.33C18.369 41.4563 18.6203 41.452 18.8099 41.3191C19.0006 41.1863 19.0927 40.9511 19.0439 40.7235C18.9768 40.4121 18.6713 40.215 18.3614 40.2825H18.3625ZM10.4412 43.7963C10.2115 43.8464 10.0653 44.0751 10.1151 44.3081C10.1649 44.539 10.3924 44.686 10.6232 44.6348C10.8528 44.5847 10.9991 44.356 10.9493 44.1252C10.9254 44.0141 10.8583 43.9161 10.7629 43.8551C10.6676 43.7931 10.5517 43.7724 10.4412 43.7963ZM15.1764 41.0513C14.8558 41.1199 14.6098 41.3779 14.5513 41.7013C14.4928 42.0247 14.6348 42.3525 14.9099 42.5311C15.1862 42.7085 15.5404 42.702 15.8091 42.5147C16.0799 42.3263 16.2099 41.9942 16.1395 41.673C16.0442 41.2331 15.613 40.9544 15.1753 41.0502L15.1764 41.0513ZM10.3621 41.0513C9.92442 41.146 9.64709 41.5794 9.74242 42.0193C9.83776 42.4581 10.27 42.7369 10.7066 42.641C11.1432 42.5452 11.4216 42.1118 11.3252 41.6719C11.2797 41.4618 11.1529 41.2777 10.972 41.1601C10.7911 41.0436 10.5712 41.0044 10.3621 41.0513ZM17.9183 38.9116C18.3842 38.8103 18.7417 38.4368 18.8273 37.9654C18.9118 37.495 18.7059 37.018 18.3051 36.76C17.9043 36.5008 17.3886 36.5095 16.9975 36.7828C16.6064 37.0561 16.4168 37.5396 16.5187 38.0067C16.6563 38.6448 17.2835 39.0499 17.9183 38.9116ZM12.5829 43.6025C12.2038 43.8421 12.09 44.343 12.3262 44.7241C12.5634 45.1052 13.0618 45.2206 13.442 44.9843C13.8212 44.7469 13.9371 44.2461 13.702 43.8639C13.5883 43.6798 13.4063 43.5481 13.1961 43.5002C12.987 43.4512 12.766 43.4882 12.5829 43.6025ZM20.7274 39.4462C20.9647 39.8274 21.4641 39.9428 21.8433 39.7043C22.2224 39.4648 22.3373 38.9639 22.1 38.5827C21.8628 38.2016 21.3633 38.0851 20.9842 38.3236C20.8011 38.4379 20.6722 38.6209 20.6234 38.831C20.5758 39.0412 20.6126 39.2633 20.7274 39.4462ZM20.6202 41.7656C20.241 42.004 20.1251 42.506 20.3623 42.8871C20.6007 43.2682 21.099 43.3847 21.4782 43.1463C21.8573 42.9078 21.9733 42.4058 21.736 42.0247C21.6223 41.8418 21.4413 41.7111 21.2312 41.6621C21.0221 41.6142 20.8022 41.6512 20.6202 41.7656ZM9.90601 38.3976C9.56692 37.8532 8.85409 37.6899 8.31351 38.0296C7.77184 38.3704 7.60826 39.0858 7.94626 39.6303C8.28534 40.1747 8.99709 40.3391 9.53876 40.0005C9.79876 39.8361 9.98401 39.5758 10.0533 39.2753C10.1216 38.9748 10.0685 38.659 9.90601 38.3976Z" fill="white"/>
<defs>
<linearGradient id="paint0_linear" x1="57.0952" y1="40.1278" x2="61.698" y2="40.1278" gradientUnits="userSpaceOnUse">
<stop stop-color="#59C4C9"/>
<stop offset="0.37" stop-color="#41B1BE"/>
<stop offset="1" stop-color="#0F8BA8"/>
</linearGradient>
<linearGradient id="paint1_linear" x1="4.77316" y1="39.7304" x2="25.4263" y2="39.7304" gradientUnits="userSpaceOnUse">
<stop stop-color="#59C4C9"/>
<stop offset="0.37" stop-color="#41B1BE"/>
<stop offset="1" stop-color="#0F8BA8"/>
</linearGradient>
</defs>
</svg>

<svg width="130" height="49" fill="none" xmlns="http://www.w3.org/2000/svg"><path d="M42.683 21.026v4.28h6.298V42.4h4.405V25.307h6.297v-4.28h-17zm36.135 1.242c-1.28-.89-3.194-1.361-5.555-1.361-1.065 0-6.309.114-6.53.12l-.832.016v21.356h4.433v-7.746h2.832c1.684.038 3.35-.335 4.859-1.088a6.959 6.959 0 003.256-6.039c0-2.39-.827-4.16-2.463-5.26v.002zm-8.495 3.038c.867 0 2.175-.062 2.713-.062 3.08 0 3.71.95 3.71 2.374a2.677 2.677 0 01-1.02 2.134 5.803 5.803 0 01-2.923.57h-2.469l-.01-5.015v-.001zm20.37.45a7.788 7.788 0 00-5.76 2.482 8.356 8.356 0 00-2.355 5.97 8.528 8.528 0 002.362 6.011 7.81 7.81 0 005.752 2.476 7.59 7.59 0 004.27-1.252v.688h4.377v-16.01l-4.309.904a7.669 7.669 0 00-4.338-1.268zm2.956 5.333a4.44 4.44 0 011.195 3.12 4.48 4.48 0 01-1.195 3.146 3.767 3.767 0 01-5.573.002 4.474 4.474 0 01-1.188-3.154 4.426 4.426 0 011.188-3.12 3.712 3.712 0 015.567 0l.006.006zm16.705 1.407l-1.699-.656c-1.528-.568-1.528-.74-1.528-.972 0-.365 0-1.037 1.947-1.037a8.782 8.782 0 014.021.986l1.212.568v-4.593l-.567-.21a13.502 13.502 0 00-4.751-.882c-3.919 0-6.263 1.866-6.263 4.992 0 3.125 2.264 4.245 4.008 4.882l1.825.656c1.766.631 1.937.808 1.937 1.138 0 .467 0 1.246-2.215 1.246a8.82 8.82 0 01-4.688-1.366l-1.281-.74v4.718l.46.24a12.051 12.051 0 005.481 1.252c4.162 0 6.648-1.959 6.648-5.23.029-3-2.045-4.059-4.547-4.992zm14.74 0l-1.699-.656c-1.529-.568-1.529-.74-1.529-.972 0-.365 0-1.037 1.948-1.037a8.775 8.775 0 014.02.986l1.213.568v-4.593l-.567-.21a13.496 13.496 0 00-4.75-.882c-3.92 0-6.264 1.866-6.264 4.992 0 3.125 2.265 4.245 4.009 4.882l1.824.656c1.766.631 1.937.808 1.937 1.138 0 .467 0 1.246-2.215 1.246a8.825 8.825 0 01-4.688-1.366l-1.28-.74v4.718l.458.24a12.058 12.058 0 005.482 1.252c4.162 0 6.648-1.959 6.648-5.23.029-3-2.016-4.059-4.547-4.992z" fill="#fff"/><path d="M59.394 42.444a2.31 2.31 0 002.304-2.316 2.31 2.31 0 00-2.304-2.316 2.31 2.31 0 00-2.304 2.316 2.31 2.31 0 002.304 2.316z" fill="url(#paint0_linear)"/><path d="M15.26 47.631c4.51 0 8.65-2.74 9.23-6.106l.937-8.356c-1.76.89-2.327 2.86-6.037 1.33 0 0-3.669-2.012-4.691-2.325-5.076-1.552-9.88 2.612-9.926 2.675l1.334 6.579c.586 3.402 4.696 6.203 9.154 6.203z" fill="url(#paint1_linear)"/><path d="M27.649 19.267c-.396-5.447-4.19-10.04-9.444-11.431l.289-2.682 2.289-1.174.092-.047 1.625-.822a1.43 1.43 0 00.633-1.924l-.199-.398A1.42 1.42 0 0021.02.153l-.492.251-.035.016-4.636 2.314a.845.845 0 00-.488.679l-.429 3.994c-6.698.021-12.155 5.248-12.631 11.86A2.86 2.86 0 000 22.077v1.344a2.852 2.852 0 002.72 2.852L4.6 40.886c.377 4.573 3.968 8.024 8.35 8.024h4.303c4.382 0 7.972-3.449 8.345-7.973l1.886-14.685a2.85 2.85 0 002.472-2.826v-1.345a2.86 2.86 0 00-2.307-2.814zM14.977 9.554c5.503 0 10.024 4.252 10.525 9.658h-2.088c-.489-4.255-4.072-7.563-8.434-7.563-4.36 0-7.951 3.308-8.439 7.563H4.455c.498-5.406 5.017-9.658 10.522-9.658zm6.401 9.658h-2.31a4.206 4.206 0 00-4.09-3.262 4.205 4.205 0 00-4.09 3.262h-2.31c.48-3.18 3.2-5.531 6.4-5.531s5.92 2.35 6.4 5.531zM5.931 34.087L4.93 26.286h7.94l-.511 4.91c-3.02-.097-5.16 1.514-6.425 2.89h-.002zm17.488 6.615c-.281 3.422-2.933 6.003-6.167 6.003h-4.303c-3.235 0-5.887-2.581-6.175-6.055l-.522-4.077c.478-.797 2.42-3.608 5.915-3.574l-.646 6.178c-.084.808.481 1.537 1.264 1.624l.44.049a1.446 1.446 0 001.57-1.308l.603-5.769c.114.051.226.098.34.156 4.03 1.981 6.828 1.385 8.484.516l-.802 6.257zm1.114-8.671c-.542.566-3.054 2.727-8.01.29a12.486 12.486 0 00-.93-.409l.59-5.627h9.089l-.739 5.746zm3.258-8.612a.692.692 0 01-.684.691H2.85a.686.686 0 01-.684-.687v-1.346c0-.38.306-.687.684-.688h24.257c.38 0 .685.308.686.688l-.002 1.342z" fill="#fff"/><path d="M17.484 43.017a1.227 1.227 0 00-.935 1.459 1.22 1.22 0 102.387-.517 1.233 1.233 0 00-.531-.774 1.216 1.216 0 00-.921-.168zm.878-2.735a.576.576 0 10.448 1.037.578.578 0 00.234-.596.573.573 0 00-.683-.44h.002zm-7.92 3.514a.43.43 0 00-.327.512c.05.231.277.378.508.327a.43.43 0 00-.182-.839zm4.734-2.745a.817.817 0 00-.266 1.48.813.813 0 001.23-.858.81.81 0 00-.965-.623l.001.001zm-4.814 0a.812.812 0 00-.62.968.81.81 0 101.583-.347.803.803 0 00-.963-.62zm7.556-2.14a1.185 1.185 0 00.387-2.152 1.17 1.17 0 00-1.308.024c-.39.273-.58.757-.478 1.224a1.177 1.177 0 001.4.905zm-5.335 4.691a.817.817 0 00-.257 1.122.81.81 0 001.116.26.817.817 0 00-.246-1.484.81.81 0 00-.613.102zm8.144-4.156a.807.807 0 001.116.258c.38-.24.494-.74.257-1.121a.807.807 0 00-1.477.248.819.819 0 00.104.615zm-.107 2.32a.816.816 0 00-.258 1.121.808.808 0 001.116.26.816.816 0 00-.247-1.485.809.809 0 00-.61.104zM9.906 38.398a1.152 1.152 0 00-1.592-.368 1.165 1.165 0 00-.368 1.6 1.153 1.153 0 002.107-.355c.069-.3.015-.616-.147-.877z" fill="#fff"/><defs><linearGradient id="paint0_linear" x1="57.095" y1="40.128" x2="61.698" y2="40.128" gradientUnits="userSpaceOnUse"><stop stop-color="#59C4C9"/><stop offset=".37" stop-color="#41B1BE"/><stop offset="1" stop-color="#0F8BA8"/></linearGradient><linearGradient id="paint1_linear" x1="4.773" y1="39.73" x2="25.426" y2="39.73" gradientUnits="userSpaceOnUse"><stop stop-color="#59C4C9"/><stop offset=".37" stop-color="#41B1BE"/><stop offset="1" stop-color="#0F8BA8"/></linearGradient></defs></svg>
